!!!COM: Landini, Francesco
!!!CDT: ~1325///-1397/09/02/
!!!OTL: Angelica bilt&agrave;
!!!AGN: ballate
!!!URL: http://www.cpdl.org/modules.php?op=modload&name=Downloads&file=index&req=viewsdownload&sid=686
!!!ONB: CPDL.org; edited by Sabine Cassola; added on 2003/07/31/
**kern	**text	**text	**kern	**text	**text
*staff2	*staff2	*staff2	*staff1	*staff1	*staff1
*Ivox	*Ivox	*Ivox	*Ivox	*Ivox	*Ivox
*>[A,B,B,A,A]	*>[A,B,B,A,A]	*>[A,B,B,A,A]	*>[A,B,B,A,A]	*>[A,B,B,A,A]	*>[A,B,B,A,A]
*>norep[A,B,A]	*>norep[A,B,A]	*>norep[A,B,A]	*>norep[A,B,A]	*>norep[A,B,A]	*>norep[A,B,A]
*>A	*>A	*>A	*>A	*>A	*>A
*clefF4	*	*	*clefGv2	*	*
*k[b-]	*	*	*k[b-]	*	*
*M3/4	*	*	*M3/4	*	*
*MM80	*MM80	*MM80	*MM80	*MM80	*MM80
2.G\	An-	Ma	2.d\	An-	Ma
=19	=19	=19	=19	=19	=19
4G\	ge	non	4d\	ge	non
2G\	li	cre-	8c\	.	.
.	.	.	4d\	li	cre-
.	.	.	8B-\	.	.
=20	=20	=20	=20	=20	=20
4D\	-ca	-do	4A/	-ca	-do
4F\	bil-	con	8A/L	bil-	con
.	.	.	8G/J	.	.
4E\	.	.	8G/L	.	.
.	.	.	8F/J	.	.
=21	=21	=21	=21	=21	=21
4D\	-tà	pa-	4A/	-tà	pa-
4r	.	.	4r	.	.
4E\	ve-	-ce	8Bn\L	ve-	-ce
.	.	.	8c\J	.	.
=22	=22	=22	=22	=22	=22
4D\	nu	tan-	4d\	nu	tan-
4G\	in	-ta	4e\	in	-ta
4r	.	.	4d\	.	.
=23	=23	=23	=23	=23	=23
2.F\	ter-	guer-	4f\	ter-	guer-
.	.	.	4r	.	.
.	.	.	8f\L	.	.
.	.	.	8e\J	.	.
=24	=24	=24	=24	=24	=24
4G\	.	.	8e\L	.	.
.	.	.	8d\J	.	.
4F\	.	.	8d\L	.	.
.	.	.	8c\J	.	.
4G\	.	.	8c\L	.	.
.	.	.	8B-\J	.	.
=25	=25	=25	=25	=25	=25
4D\	.	.	8c\L	.	.
.	.	.	8A\J	.	.
4E\	.	.	8A/L	.	.
.	.	.	8G/J	.	.
4F\	.	.	8A/L	.	.
.	.	.	8F/J	.	.
=26	=26	=26	=26	=26	=26
2.G\	-ra:	-ra.	2.G/	-ra:	-ra.
=27!|:	=27!|:	=27!|:	=27!|:	=27!|:	=27!|:
*>B	*>B	*>B	*>B	*>B	*>B
2.G\	Dun-	Ven-	2.g\	Dun-	Ven-
=28	=28	=28	=28	=28	=28
4A\	.	.	8g\L	.	.
.	.	.	8f\J	.	.
4G\	.	.	8e\L	.	.
.	.	.	8f\J	.	.
4F\	.	.	8e\L	.	.
.	.	.	8d\J	.	.
=29	=29	=29	=29	=29	=29
2E\	-que	-gha	2c#\	-que	-gha
4F\	cia-	ve-	4d\	cia-	ve-
=30	=30	=30	=30	=30	=30
4E\	-scun	-der	8f\L	-scun	-der
.	.	.	8e\J	.	.
4F\	c'a-	co-	8e\L	c'a-	co-
.	.	.	8d\J	.	.
4E\	.	.	8e\L	.	.
.	.	.	8c#\J	.	.
=31	=31	=31	=31	=31	=31
2D\	-ma	-stei	4d\	-ma	-stei
.	.	.	4r	.	.
4A\	ve-	che	8e\L	ve-	che
.	.	.	8f\J	.	.
=32	=32	=32	=32	=32	=32
4G\	-der	sol	4g\	-der	sol
4r	.	.	4r	.	.
4G\	bel-	va-	4g\	bel-	va-
=33	=33	=33	=33	=33	=33
4G\	leç	ghe	12g\L	leç	ghe
.	.	.	12f\	.	.
.	.	.	12e\J	.	.
4F\	.	.	4d\	.	.
4E\	.	.	4c\	.	.
=34	=34	=34	=34	=34	=34
4G\	.	.	8e\L	.	.
.	.	.	8d\J	.	.
4F\	.	.	8d\L	.	.
.	.	.	8c\J	.	.
4G\	.	.	8d\L	.	.
.	.	.	8B-\J	.	.
=35	=35	=35	=35	=35	=35
2.A\	-ça,	-ça,	2.A/	-ça,	-ça,
=36	=36	=36	=36	=36	=36
4G\	Vir-	A-	2B-\	Vir-	A-
4B-\	.	.	.	.	.
4A\	.	.	4c\	.	.
=37	=37	=37	=37	=37	=37
4G\	-tù,	-rà	4d\	-tù,	-rà
4r	.	.	4r	.	.
4G\	at-	di	4d\	at-	di
=38	=38	=38	=38	=38	=38
4D\	-ti	lei	4d\	-ti	lei
4E\	.	.	8c\	.	.
.	.	.	4B-\	ve-	si
4F\	.	.	.	.	.
.	.	.	8A/	.	.
=39	=39	=39	=39	=39	=39
2.G\	ço-	com'	2G/	ço	com'
.	.	.	4r	.	.
=40	=40	=40	=40	=40	=40
4G\	e	à	4d\	e	à
2A\	le-	l'al-	4e\	.	.
.	.	.	4f\	le-	l'al-
=41	=41	=41	=41	=41	=41
4G\	gia	-ma	4g\	gia	-ma
4F\	.	.	12g\L	.	.
.	.	.	12f\	.	.
.	.	.	12e\J	.	.
4G\	.	.	8f\L	.	.
.	.	.	8d\J	.	.
=42	=42	=42	=42	=42	=42
4A\	dri	mi-	4e\	dri	mi-
4G\	.	.	4r	.	.
4F\	.	.	8c\L	.	.
.	.	.	8d\J	.	.
=43	=43	=43	=43	=43	=43
2.E\	.	.	4e\	.	.
.	.	.	12c\L	.	.
.	.	.	12Bn\	.	.
.	.	.	12A\J	.	.
.	.	.	8B\L	.	.
.	.	.	8c\J	.	.
=44	=44	=44	=44	=44	=44
2.D\	-a.	-a.	2.d\	-a.	-a.
==:|!	==:|!	==:|!	==:|!	==:|!	==:|!
*-	*-	*-	*-	*-	*-
!!!ENC: Craig Stuart Sapp
!!!END: 2004/12/13/
